X: 1
T: Saut du Lapin
T: Rabbit's Jump
O: Qu\'ebec
R: reel
Z: John Chambers <jc:trillian.mit.edu>
S: Danse ce soir
M: 4/4
L: 1/8
K: G
|: "G"BcBA GFGB | "G"d2BG "Am"Az zA | "Am"ABcB ABcd |1,3 "D7"e2f2 e2d2 :|2,4 "C"eA"D7"fA "G"g2z2 :|
|: "G"gdBG d2ef | gdBG d3D | "D7"FdDd FdDd |1,3 FdDd Bdef :|2,4 "C"eA"D7"fA "G"g2z2 :|
